icons/category/icon_category-transport_xxl_black.svg

<svg width="48" height="48" viewBox="0 0 48 48" xmlns="http://www.w3.org/2000/svg"><g fill="none" fill-rule="evenodd"><path d="M0 0h48v48H0z"/><g fill="#0B1F35" fill-rule="nonzero"><path d="M22.285.873L18.17 8h-6.786A4.39 4.39 0 0 0 7 12.384v29.231A4.39 4.39 0 0 0 11.384 46h25.232A4.39 4.39 0 0 0 41 41.616V12.384A4.39 4.39 0 0 0 36.616 8h-8.324l3.538-6.127-1.732-1L25.982 8H20.48l3.538-6.127-1.733-1zM36.616 9A3.388 3.388 0 0 1 40 12.384v29.231A3.388 3.388 0 0 1 36.616 45H11.384A3.388 3.388 0 0 1 8 41.616V12.384A3.388 3.388 0 0 1 11.384 9h25.232z"/><path d="M7.5 40h6.371A2.129 2.129 0 0 0 16 37.871v-1.742A2.129 2.129 0 0 0 13.871 34H7.5v6zm33-6h-6.371A2.129 2.129 0 0 0 32 36.129v1.742c0 1.176.953 2.129 2.129 2.129H40.5v-6zm-33-19h33v15h-33V15z" opacity=".3"/></g></g></svg>

<?xml version="1.0" encoding="UTF-8"?>
<svg width="48px" height="48px" viewBox="0 0 48 48" version="1.1" xmlns="http://www.w3.org/2000/svg" xmlns:xlink="http://www.w3.org/1999/xlink">
    <!-- Generator: Sketch 48.2 (47327) - http://www.bohemiancoding.com/sketch -->
    <title>icon_category-transport_xxl_black</title>
    <desc>Created with Sketch.</desc>
    <defs></defs>
    <g id="mobile" stroke="none" stroke-width="1" fill="none" fill-rule="evenodd" transform="translate(-1615.000000, -894.000000)">
        <g id="Headings" transform="translate(64.000000, 77.000000)">
            <g id="icon_category_transit__xxl__white" transform="translate(1551.000000, 817.000000)">
                <g id="ungroup">
                    <rect id="Rectangle-path" x="0" y="0" width="48" height="48"></rect>
                    <g id="a1" opacity="0.4"></g>
                    <path d="M22.285,0.873 L18.17,8 L11.384,8 C8.967,8 7,9.967 7,12.384 L7,41.615 C7,44.033 8.967,46 11.384,46 L36.616,46 C39.033,46 41,44.033 41,41.616 L41,12.384 C41,9.967 39.033,8 36.616,8 L28.292,8 L31.83,1.873 L30.098,0.873 L25.982,8 L20.48,8 L24.018,1.873 L22.285,0.873 L22.285,0.873 Z M36.616,9 C38.482,9 40,10.518 40,12.384 L40,41.615 C40,43.482 38.482,45 36.616,45 L11.384,45 C9.518,45 8,43.482 8,41.616 L8,12.384 C8,10.518 9.518,9 11.384,9 L36.616,9 L36.616,9 Z" id="Shape" fill="#0B1F35"></path>
                    <path d="M7.5,40 L13.871,40 C15.047,40 16,39.047 16,37.871 L16,36.129 C16,34.953 15.047,34 13.871,34 L7.5,34 L7.5,40 L7.5,40 Z" id="Shape" fill="#0B1F35" opacity="0.3"></path>
                    <path d="M40.5,34 L34.129,34 C32.953,34 32,34.953 32,36.129 L32,37.871 C32,39.047 32.953,40 34.129,40 L40.5,40 L40.5,34 L40.5,34 Z" id="Shape" fill="#0B1F35" opacity="0.3"></path>
                    <rect id="Rectangle-path" fill="#0B1F35" opacity="0.3" x="7.5" y="15" width="33" height="15"></rect>
                </g>
            </g>
        </g>
    </g>
</svg>
